packages/foundations/assets/icons/functional/images/audio & video/volume_up_12.svg

<svg width="12" height="12" viewBox="0 0 12 12" fill="none" xmlns="http://www.w3.org/2000/svg">
<g clip-path="url(#clip0_231_108)">
<path fill-rule="evenodd" clip-rule="evenodd" d="M5.39802 2.38802C5.73702 2.38802 6.00002 2.67002 6.00002 2.99002V9.01002C6.0011 9.08937 5.98626 9.16814 5.95639 9.24166C5.92652 9.31519 5.88221 9.38198 5.8261 9.4381C5.76998 9.49421 5.70319 9.53851 5.62966 9.56839C5.55614 9.59826 5.47738 9.6131 5.39802 9.61202C5.28488 9.60981 5.17439 9.57735 5.07802 9.51802L3.42302 8.40802H2.99002C2.51408 8.40883 2.05712 8.22142 1.7188 7.88666C1.38048 7.5519 1.18824 7.09695 1.18402 6.62102V5.41702C1.18402 4.42002 1.99302 3.59202 2.99002 3.59202H3.42302L5.07802 2.50102C5.16866 2.42793 5.28158 2.38805 5.39802 2.38802ZM4.79602 4.11802L3.93102 4.70202C3.82881 4.76392 3.71151 4.79644 3.59202 4.79602H2.99002C2.83068 4.79707 2.67817 4.86083 2.5655 4.9735C2.45283 5.08617 2.38907 5.23868 2.38802 5.39802V6.60202C2.38802 6.94102 2.65102 7.20402 2.99002 7.20402H3.59202C3.72402 7.20402 3.83702 7.24202 3.93102 7.31702L4.79602 7.88102V4.12002V4.11802ZM7.20402 7.78802C7.80602 7.78802 8.40802 6.88402 8.40802 5.98102C8.40802 5.07802 7.80602 4.19402 7.20402 4.19402C6.90302 4.19402 6.60202 4.47602 6.60202 4.79602C6.60202 5.37902 7.20402 5.37902 7.20402 5.98102C7.20402 6.58302 6.60202 6.58302 6.60202 7.18502C6.60202 7.48602 6.90302 7.78802 7.20402 7.78802ZM8.40802 10.214C8.55802 10.214 8.69002 10.158 8.80302 10.064C9.40902 9.56105 9.9017 8.93551 10.2486 8.22851C10.5956 7.52152 10.789 6.74909 10.816 5.96202C10.816 4.60802 10.082 3.15902 8.82202 1.95502C8.7675 1.90103 8.70287 1.85832 8.63184 1.82933C8.5608 1.80033 8.48475 1.78561 8.40802 1.78602C8.24972 1.79031 8.09907 1.85511 7.98709 1.96709C7.87511 2.07907 7.81031 2.22971 7.80602 2.38802C7.80602 2.55802 7.88102 2.72702 7.99402 2.84002C9.01002 3.78002 9.61202 4.96502 9.61202 5.96202C9.58369 6.57734 9.42676 7.17991 9.15136 7.73089C8.87596 8.28187 8.48818 8.76904 8.01302 9.16102C7.94835 9.21708 7.89641 9.28633 7.86071 9.36412C7.82501 9.4419 7.80636 9.52643 7.80602 9.61202C7.80602 9.95102 8.08802 10.214 8.40802 10.214Z" fill="#1A1C1F"/>
</g>
<defs>
<clipPath id="clip0_231_108">
<rect width="12" height="12" fill="white"/>
</clipPath>
</defs>
</svg>

<svg xmlns="http://www.w3.org/2000/svg" width="12" height="12" fill="none"><g clip-path="url(#a)"><path fill="#1A1C1F" fill-rule="evenodd" d="M5.398 2.388c.339 0 .602.282.602.602v6.02a.594.594 0 0 1-.602.602.63.63 0 0 1-.32-.094l-1.655-1.11H2.99a1.803 1.803 0 0 1-1.806-1.787V5.417c0-.997.809-1.825 1.806-1.825h.433l1.655-1.091a.5.5 0 0 1 .32-.113m-.602 1.73-.865.584a.65.65 0 0 1-.339.094H2.99a.606.606 0 0 0-.602.602v1.204c0 .339.263.602.602.602h.602q.198 0 .339.113l.865.564V4.118m2.408 3.67c.602 0 1.204-.904 1.204-1.807s-.602-1.787-1.204-1.787c-.301 0-.602.282-.602.602 0 .583.602.583.602 1.185s-.602.602-.602 1.204c0 .301.301.603.602.603m1.204 2.426c.15 0 .282-.056.395-.15a5.58 5.58 0 0 0 2.013-4.102c0-1.354-.734-2.803-1.994-4.007a.584.584 0 0 0-.835.012.62.62 0 0 0-.181.421c0 .17.075.339.188.452 1.016.94 1.618 2.125 1.618 3.122a4.4 4.4 0 0 1-1.599 3.199.6.6 0 0 0-.207.451c0 .339.282.602.602.602" clip-rule="evenodd"/></g><defs><clipPath id="a"><path fill="#fff" d="M0 0h12v12H0z"/></clipPath></defs></svg>
